src/lib/packages/icons/src/assets/line/droplet-slash.svg

<svg width="24" height="24" viewBox="0 0 24 24" fill="none" xmlns="http://www.w3.org/2000/svg">
<path d="M18.698 9.66C19.396 11.139 19.75 12.599 19.75 14C19.75 18.273 16.273 21.75 12 21.75C10.467 21.75 8.99199 21.309 7.73499 20.475C7.38999 20.246 7.29599 19.78 7.52499 19.435C7.75399 19.09 8.221 18.997 8.565 19.225C9.576 19.895 10.763 20.25 12.001 20.25C15.447 20.25 18.251 17.446 18.251 14C18.251 12.822 17.945 11.577 17.343 10.3C17.166 9.92498 17.326 9.47799 17.701 9.30199C18.073 9.12499 18.521 9.285 18.698 9.66ZM21.53 3.52999L3.52999 21.53C3.38399 21.676 3.19199 21.75 2.99999 21.75C2.80799 21.75 2.61599 21.677 2.46999 21.53C2.17699 21.237 2.17699 20.762 2.46999 20.469L5.21899 17.719C4.59599 16.587 4.24999 15.319 4.24999 13.999C4.24999 7.68599 11.266 2.602 11.564 2.389C11.824 2.203 12.174 2.203 12.435 2.389C12.532 2.458 14.641 3.984 16.567 6.372L20.47 2.46899C20.763 2.17599 21.238 2.17599 21.531 2.46899C21.823 2.76199 21.823 3.23799 21.53 3.52999ZM6.32099 16.618L15.502 7.437C14.178 5.768 12.713 4.512 12 3.945C10.516 5.13 5.74899 9.30099 5.74899 14C5.74999 14.917 5.94699 15.807 6.32099 16.618Z" fill="currentColor"/>
</svg>

<svg xmlns="http://www.w3.org/2000/svg" width="24" height="24" fill="none"><path fill="currentColor" d="M18.698 9.66c.698 1.479 1.052 2.939 1.052 4.34 0 4.273-3.477 7.75-7.75 7.75a7.687 7.687 0 0 1-4.265-1.275.75.75 0 0 1 .83-1.25A6.257 6.257 0 0 0 18.251 14c0-1.178-.306-2.423-.908-3.7a.749.749 0 1 1 1.355-.64Zm2.832-6.13-18 18a.748.748 0 0 1-1.06 0 .75.75 0 0 1 0-1.061l2.749-2.75a7.697 7.697 0 0 1-.969-3.72c0-6.313 7.016-11.397 7.314-11.61a.75.75 0 0 1 .871 0c.097.069 2.206 1.595 4.132 3.983l3.903-3.903a.75.75 0 1 1 1.06 1.061ZM6.321 16.618l9.181-9.181A22.648 22.648 0 0 0 12 3.945C10.516 5.13 5.749 9.301 5.749 14c.001.917.198 1.807.572 2.618Z"/></svg>
